icons/duc.svg

<svg width="16" height="16" viewBox="0 0 16 16" xmlns="http://www.w3.org/2000/svg">
<path d="M12.5637 8.48937C12.624 8.25811 12.6878 8.03046 12.7196 7.79415C12.8156 7.07513 12.7005 6.38605 12.4519 5.7132C12.4313 5.65728 12.4064 5.60172 12.3747 5.55157C12.2513 5.35856 12.0323 5.3517 11.9042 5.54292C11.8487 5.62625 11.8115 5.72402 11.7769 5.81891C11.5388 6.47191 11.2235 7.07837 10.7281 7.57733C10.4749 7.83203 10.1942 8.05247 9.86478 8.25486C9.92214 8.02469 10.026 7.8342 10.1126 7.6502C10.4525 6.92865 10.6264 6.16742 10.7317 5.38598C10.8205 4.72829 10.8335 4.06554 10.6596 3.42192C10.3428 2.2476 9.64975 1.4005 8.43033 1.10214C7.19829 0.800888 6.16394 1.17285 5.33705 2.12782C5.10976 2.39046 4.90087 2.66898 4.6743 2.93235C4.29657 3.37213 3.83153 3.68961 3.29217 3.90283C3.1291 3.96705 2.96423 3.9602 2.79755 3.96164C2.6536 3.96272 2.50857 3.96308 2.37328 4.01864C1.962 4.18748 1.87 4.69834 2.20083 5.04829C2.51687 5.38273 2.93284 5.51369 3.3766 5.58549C3.91776 5.67316 4.41815 5.49782 4.92613 5.36866C5.40704 5.24636 5.88615 5.11612 6.36598 4.98949C6.45184 4.96676 6.56332 4.92707 6.61635 4.99706C6.66325 5.05876 6.59326 5.15544 6.55394 5.22832C6.43705 5.44551 6.25305 5.59667 6.0521 5.73196C5.54052 6.07614 4.99575 6.37053 4.51737 6.76342C3.60316 7.51419 2.98948 8.44716 2.84409 9.63952C2.67525 11.0242 3.10385 12.2328 4.01697 13.2671C4.61766 13.9475 5.34859 14.4627 6.21914 14.734C7.89638 15.2568 9.46179 15.0158 10.8746 13.9504C12.3227 12.858 13.0757 11.3665 13.3127 9.5937C13.3538 9.28596 13.3715 8.97208 13.3293 8.66037C13.2777 8.27867 13.0548 8.18199 12.7445 8.40458C12.7008 8.43597 12.6557 8.46483 12.6099 8.49297C12.6023 8.49766 12.5886 8.49153 12.5637 8.48901V8.48937Z" fill="#FF5252"/></svg>

<svg xmlns="http://www.w3.org/2000/svg" viewBox="0 0 16 16"><path fill="#FF5252" d="M12.564 8.49c.06-.232.124-.46.156-.696.096-.719-.02-1.408-.268-2.08a.858.858 0 0 0-.077-.162c-.124-.193-.343-.2-.47-.01a1.297 1.297 0 0 0-.128.277c-.238.653-.553 1.26-1.049 1.758a4.566 4.566 0 0 1-.863.678c.057-.23.161-.42.248-.605.34-.721.513-1.483.619-2.264.088-.658.102-1.32-.072-1.964-.317-1.174-1.01-2.022-2.23-2.32-1.232-.301-2.266.07-3.093 1.026-.227.262-.436.541-.663.804-.377.44-.842.758-1.382.97-.163.065-.328.058-.494.06-.144 0-.29.001-.425.057-.411.168-.503.68-.172 1.03.316.334.732.465 1.176.536.54.088 1.041-.087 1.55-.216.48-.123.96-.253 1.439-.38.086-.022.197-.062.25.008.047.062-.023.158-.062.231-.117.218-.301.369-.502.504-.511.344-1.056.639-1.535 1.031-.914.751-1.528 1.684-1.673 2.877-.169 1.384.26 2.593 1.173 3.627.6.68 1.332 1.196 2.202 1.467 1.677.523 3.243.282 4.656-.784 1.448-1.092 2.2-2.583 2.438-4.356a3.5 3.5 0 0 0 .016-.934c-.051-.381-.274-.478-.585-.255-.043.031-.088.06-.134.088-.008.005-.021-.001-.046-.004Z"/></svg>
